paypal.svg

<svg viewBox="0 0 24 24" xmlns="http://www.w3.org/2000/svg"><path d="M7.60816 23.1864L8.02411 20.5444L7.09757 20.5229L2.67328 20.5229L5.74794 1.02754C5.75748 0.968685 5.7885 0.913809 5.83383 0.874838C5.87916 0.835868 5.93722 0.814395 5.99766 0.814395L13.4576 0.814395C15.9342 0.814395 17.6434 1.32975 18.5357 2.34695C18.954 2.82414 19.2204 3.3228 19.3493 3.87156C19.4845 4.44736 19.4869 5.1353 19.3549 5.97435L19.3453 6.03559L19.3453 6.57322L19.7636 6.81022C20.116 6.99712 20.3959 7.21105 20.6106 7.45601C20.9685 7.864 21.2 8.38254 21.2978 8.99732C21.3988 9.62959 21.3654 10.3819 21.2 11.2337C21.0091 12.2135 20.7005 13.0669 20.2838 13.7652C19.9004 14.4086 19.4121 14.9422 18.8323 15.3558C18.2788 15.7487 17.6211 16.0469 16.8775 16.2378C16.1569 16.4255 15.3354 16.5201 14.4343 16.5201L13.8537 16.5201C13.4386 16.5201 13.0353 16.6696 12.7188 16.9377C12.4015 17.2113 12.1915 17.585 12.1271 17.9938L12.0834 18.2316L11.3485 22.8882L11.3151 23.0592C11.3063 23.1132 11.2912 23.1403 11.269 23.1586C11.2491 23.1753 11.2204 23.1864 11.1926 23.1864L7.60816 23.1864Z" fill="#253b80"/><path d="M20.1597 6.09762L20.1597 6.09762L20.1597 6.09762C20.1374 6.23998 20.112 6.38553 20.0834 6.53504C19.0996 11.586 15.7338 13.3309 11.4352 13.3309L9.2465 13.3309C8.7208 13.3309 8.27781 13.7127 8.19589 14.2312L8.19589 14.2312L8.19589 14.2312L7.07531 21.3381L6.75798 23.3526C6.70469 23.693 6.96714 24 7.31072 24L11.1926 24C11.6523 24 12.0428 23.666 12.1152 23.2126L12.1533 23.0154L12.8842 18.3772L12.9312 18.1227C13.0027 17.6678 13.394 17.3337 13.8537 17.3337L14.4343 17.3337C18.1953 17.3337 21.1395 15.8067 22 11.388C22.3595 9.5421 22.1734 8.0008 21.2222 6.91679C20.9343 6.58992 20.5772 6.31872 20.1597 6.09762Z" fill="#179bd7"/><path d="M19.1306 5.68725C18.9803 5.6435 18.8252 5.60374 18.6661 5.56795C18.5063 5.53296 18.3424 5.50194 18.1738 5.4749C17.5837 5.37946 16.9371 5.33413 16.2444 5.33413L10.3973 5.33413C10.2534 5.33413 10.1166 5.36674 9.99408 5.42559C9.72448 5.55522 9.52406 5.81052 9.47554 6.12307L8.23168 14.0014L8.19589 14.2312C8.27781 13.7127 8.7208 13.3309 9.2465 13.3309L11.4352 13.3309C15.7338 13.3309 19.0996 11.5852 20.0834 6.53504C20.1128 6.38553 20.1374 6.23998 20.1597 6.09762C19.9108 5.9656 19.6412 5.85267 19.3509 5.75644C19.2793 5.73258 19.2053 5.70951 19.1306 5.68725Z" fill="#222d65"/><path d="M9.47554 6.12307C9.52406 5.81052 9.72448 5.55522 9.99408 5.42638C10.1174 5.36753 10.2534 5.33492 10.3973 5.33492L16.2444 5.33492C16.9371 5.33492 17.5837 5.38026 18.1738 5.47569C18.3424 5.50273 18.5063 5.53375 18.6661 5.56874C18.8252 5.60453 18.9803 5.6443 19.1306 5.68804C19.2053 5.71031 19.2793 5.73337 19.3517 5.75644C19.642 5.85267 19.9116 5.9664 20.1605 6.09762C20.4532 4.23104 20.1581 2.96014 19.1489 1.80932C18.0362 0.5424 16.0281-4.44089e-16 13.4584-4.44089e-16L5.99846-4.44089e-16C5.47356-4.44089e-16 5.0258 0.381748 4.94468 0.901084L1.83741 20.5969C1.77617 20.9866 2.0768 21.3381 2.46968 21.3381L7.07531 21.3381L8.23168 14.0014L9.47554 6.12307Z" fill="#253b80"/></svg>

<svg viewBox="0 0 24 24" xmlns="http://www.w3.org/2000/svg"><path d="m7.608 23.186.416-2.642-.926-.021H2.673L5.748 1.028a.251.251 0 0 1 .25-.213h7.46c2.476 0 4.185.515 5.078 1.532.418.477.684.976.813 1.525.136.575.138 1.263.006 2.102l-.01.062v.537l.419.237c.352.187.632.401.847.646.357.408.589.927.687 1.541.1.633.067 1.385-.098 2.237-.19.98-.5 1.833-.916 2.531a5.208 5.208 0 0 1-1.452 1.59 5.888 5.888 0 0 1-1.954.883c-.721.188-1.543.282-2.444.282h-.58c-.415 0-.819.15-1.135.418a1.757 1.757 0 0 0-.592 1.056l-.044.238-.735 4.656-.033.171c-.009.054-.024.081-.046.1a.123.123 0 0 1-.076.027H7.608Z" fill="#253b80"/><path d="M20.16 6.098c-.023.142-.048.288-.077.437-.983 5.051-4.35 6.796-8.648 6.796H9.246c-.525 0-.968.382-1.05.9l-1.12 7.107-.318 2.015a.56.56 0 0 0 .553.647h3.882c.46 0 .85-.334.922-.787l.038-.198.731-4.638.047-.254a.933.933 0 0 1 .923-.79h.58c3.761 0 6.706-1.526 7.566-5.945.36-1.846.173-3.387-.778-4.471a3.712 3.712 0 0 0-1.062-.82Z" fill="#179bd7"/><path d="M19.13 5.687a7.746 7.746 0 0 0-.956-.212c-.59-.096-1.237-.14-1.93-.14h-5.847a.929.929 0 0 0-.921.788l-1.244 7.878-.036.23c.082-.518.525-.9 1.05-.9h2.19c4.298 0 7.664-1.746 8.647-6.796.03-.15.054-.295.077-.437a5.242 5.242 0 0 0-.81-.342 7.238 7.238 0 0 0-.22-.069Z" fill="#222d65"/><path d="M9.476 6.123a.93.93 0 0 1 .921-.788h5.847c.693 0 1.34.045 1.93.14a7.753 7.753 0 0 1 1.178.28c.29.098.56.211.808.343.293-1.867-.002-3.138-1.011-4.289C18.036.542 16.029 0 13.459 0h-7.46c-.525 0-.973.382-1.054.901L1.837 20.597a.64.64 0 0 0 .633.741h4.605l1.157-7.337 1.244-7.878Z" fill="#253b80"/></svg>
